ion/phone-landscape.svg

<svg viewBox="0 0 512 512" xmlns="http://www.w3.org/2000/svg" xmlns:xlink="http://www.w3.org/1999/xlink"><defs><path d="M0 176v160 0c0 35.34 28.65 64 64 64h384v0c35.34 0 64-28.66 64-64V176v0c0-35.35-28.66-64-64-64H64v0c-35.35 0-64 28.65-64 64Zm448-32v0c17.67 0 32 14.32 32 32v160 0c0 17.67-14.33 32-32 32H64v0c-17.68 0-32-14.33-32-32v-11.35 0c-.02-3.17 1.85-6.03 4.75-7.3l-.001-.001c11.68-5.08 19.24-16.61 19.25-29.35v-64 0c-.01-12.75-7.57-24.28-19.25-29.35h0c-2.9-1.28-4.77-4.14-4.75-7.3v-11.35 0c0-17.68 14.32-32 32-32Z" id="a"/></defs><g><use xlink:href="#a"/><path d="M48 176v0 0c-.03 3.73 1.71 7.26 4.69 9.53h-.001c12.14 9.05 19.3 23.31 19.31 38.47v64 0c-.01 15.15-7.17 29.41-19.31 38.47h-.001c-2.98 2.26-4.72 5.79-4.69 9.53v0 0c0 8.83 7.16 16 16 16h384v0c8.83 0 16-7.17 16-16V176v0c0-8.84-7.17-16-16-16h-384v0c-8.84 0-16 7.16-16 16Z"/><use xlink:href="#a"/></g></svg>

<svg xmlns="http://www.w3.org/2000/svg" width="512" height="512" viewBox="0 0 512 512"><path d="M0,176V336a64,64,0,0,0,64,64H448a64,64,0,0,0,64-64V176a64,64,0,0,0-64-64H64A64,64,0,0,0,0,176Zm448-32a32,32,0,0,1,32,32V336a32,32,0,0,1-32,32H64a32,32,0,0,1-32-32V324.65a7.94,7.94,0,0,1,4.75-7.3A32,32,0,0,0,56,288V224a32,32,0,0,0-19.25-29.35,7.94,7.94,0,0,1-4.75-7.3V176a32,32,0,0,1,32-32Z"/><path d="M48,176h0a11.88,11.88,0,0,0,4.69,9.53A48,48,0,0,1,72,224v64a48,48,0,0,1-19.31,38.47A11.88,11.88,0,0,0,48,336h0a16,16,0,0,0,16,16H448a16,16,0,0,0,16-16V176a16,16,0,0,0-16-16H64A16,16,0,0,0,48,176Z"/><path d="M0,176V336a64,64,0,0,0,64,64H448a64,64,0,0,0,64-64V176a64,64,0,0,0-64-64H64A64,64,0,0,0,0,176Zm448-32a32,32,0,0,1,32,32V336a32,32,0,0,1-32,32H64a32,32,0,0,1-32-32V324.65a7.94,7.94,0,0,1,4.75-7.3A32,32,0,0,0,56,288V224a32,32,0,0,0-19.25-29.35,7.94,7.94,0,0,1-4.75-7.3V176a32,32,0,0,1,32-32Z"/></svg>
